packages/appstore/src/assets/svgs/trading-platform/ic-appstore-gold.svg

<svg viewBox="0 0 49 48" fill="none" xmlns="http://www.w3.org/2000/svg">
<path d="M39.5 0H9.5C4.52944 0 0.5 4.02944 0.5 9V35.25H48.5V9C48.5 4.02944 44.4706 0 39.5 0Z" fill="#0364B9"/>
<path d="M9.5 0C4.52944 0 0.5 4.02944 0.5 9V9.26143L45.3717 2.17896C43.7955 0.820999 41.7436 0 39.5 0H9.5Z" fill="#0A559E"/>
<path d="M48.5 9C48.5 6.74364 47.6698 4.68068 46.298 3.10107L40.4042 35.2495L48.5 35.25V9Z" fill="#0A559E"/>
<path d="M0.5 34.5H48.5V39C48.5 43.9706 44.4706 48 39.5 48H9.5C4.52944 48 0.5 43.9706 0.5 39V34.5Z" fill="#DAAF0A"/>
<path d="M11.5133 14.526C11.7293 14.922 11.9753 15.414 12.2513 16.002C12.5393 16.578 12.8333 17.208 13.1333 17.892C13.4453 18.564 13.7513 19.254 14.0513 19.962C14.3513 20.67 14.6333 21.336 14.8973 21.96C15.1613 21.336 15.4433 20.67 15.7433 19.962C16.0433 19.254 16.3433 18.564 16.6433 17.892C16.9553 17.208 17.2493 16.578 17.5253 16.002C17.8133 15.414 18.0653 14.922 18.2813 14.526H20.8373C20.9573 15.354 21.0653 16.284 21.1613 17.316C21.2693 18.336 21.3593 19.404 21.4313 20.52C21.5153 21.624 21.5873 22.734 21.6473 23.85C21.7193 24.966 21.7793 26.016 21.8273 27H19.0913C19.0553 25.788 19.0073 24.468 18.9473 23.04C18.8873 21.612 18.7973 20.172 18.6773 18.72C18.4613 19.224 18.2213 19.782 17.9573 20.394C17.6933 21.006 17.4293 21.618 17.1653 22.23C16.9133 22.842 16.6673 23.43 16.4273 23.994C16.1873 24.546 15.9833 25.02 15.8153 25.416H13.8533C13.6853 25.02 13.4813 24.546 13.2413 23.994C13.0013 23.43 12.7493 22.842 12.4853 22.23C12.2333 21.618 11.9753 21.006 11.7113 20.394C11.4473 19.782 11.2073 19.224 10.9913 18.72C10.8713 20.172 10.7813 21.612 10.7213 23.04C10.6613 24.468 10.6133 25.788 10.5773 27H7.84133C7.88933 26.016 7.94333 24.966 8.00333 23.85C8.07533 22.734 8.14733 21.624 8.21933 20.52C8.30333 19.404 8.39333 18.336 8.48933 17.316C8.59733 16.284 8.71133 15.354 8.83133 14.526H11.5133Z" fill="white"/>
<path d="M32.5318 14.526V16.92H28.7698V27H25.9618V16.92H22.1998V14.526H32.5318Z" fill="white"/>
<path d="M38.4765 23.328C38.4765 22.98 38.3985 22.674 38.2425 22.41C38.0865 22.134 37.8165 21.906 37.4325 21.726C37.0485 21.546 36.5325 21.408 35.8845 21.312C35.2365 21.216 34.4205 21.168 33.4365 21.168C33.5685 20.052 33.6765 18.918 33.7605 17.766C33.8445 16.614 33.9105 15.534 33.9585 14.526H40.7085V16.776H36.2085C36.1845 17.208 36.1545 17.628 36.1185 18.036C36.0945 18.432 36.0645 18.78 36.0285 19.08C37.7805 19.2 39.0705 19.614 39.8985 20.322C40.7385 21.018 41.1585 21.99 41.1585 23.238C41.1585 23.814 41.0565 24.348 40.8525 24.84C40.6485 25.332 40.3425 25.758 39.9345 26.118C39.5265 26.478 39.0105 26.76 38.3865 26.964C37.7745 27.168 37.0545 27.27 36.2265 27.27C35.9025 27.27 35.5605 27.246 35.2005 27.198C34.8525 27.162 34.5105 27.108 34.1745 27.036C33.8505 26.976 33.5565 26.91 33.2925 26.838C33.0285 26.766 32.8245 26.694 32.6805 26.622L33.1665 24.408C33.4665 24.54 33.8625 24.672 34.3545 24.804C34.8465 24.924 35.4345 24.984 36.1185 24.984C36.9465 24.984 37.5465 24.822 37.9185 24.498C38.2905 24.162 38.4765 23.772 38.4765 23.328Z" fill="white"/>
<path d="M15.6936 39.2219C15.0396 39.2219 14.5656 39.4049 14.2716 39.7709C13.9836 40.1309 13.8396 40.6259 13.8396 41.2559C13.8396 41.5619 13.8756 41.8409 13.9476 42.0929C14.0196 42.3389 14.1276 42.5519 14.2716 42.7319C14.4156 42.9119 14.5956 43.0529 14.8116 43.1549C15.0276 43.2509 15.2796 43.2989 15.5676 43.2989C15.7236 43.2989 15.8556 43.2959 15.9636 43.2899C16.0776 43.2839 16.1766 43.2719 16.2606 43.2539V41.0849H17.6646V44.1719C17.4966 44.2379 17.2266 44.3069 16.8546 44.3789C16.4826 44.4569 16.0236 44.4959 15.4776 44.4959C15.0096 44.4959 14.5836 44.4239 14.1996 44.2799C13.8216 44.1359 13.4976 43.9259 13.2276 43.6499C12.9576 43.3739 12.7476 43.0349 12.5976 42.6329C12.4536 42.2309 12.3816 41.7719 12.3816 41.2559C12.3816 40.7339 12.4626 40.2719 12.6246 39.8699C12.7866 39.4679 13.0086 39.1289 13.2906 38.8529C13.5726 38.5709 13.9026 38.3579 14.2806 38.2139C14.6646 38.0699 15.0726 37.9979 15.5046 37.9979C15.7986 37.9979 16.0626 38.0189 16.2966 38.0609C16.5366 38.0969 16.7406 38.1419 16.9086 38.1959C17.0826 38.2439 17.2236 38.2949 17.3316 38.3489C17.4456 38.4029 17.5266 38.4449 17.5746 38.4749L17.1696 39.5999C16.9776 39.4979 16.7556 39.4109 16.5036 39.3389C16.2576 39.2609 15.9876 39.2219 15.6936 39.2219Z" fill="white"/>
<path d="M20.15 41.2559C20.15 41.5619 20.186 41.8379 20.258 42.0839C20.336 42.3299 20.444 42.5429 20.582 42.7229C20.726 42.8969 20.9 43.0319 21.104 43.1279C21.308 43.2239 21.542 43.2719 21.806 43.2719C22.064 43.2719 22.295 43.2239 22.499 43.1279C22.709 43.0319 22.883 42.8969 23.021 42.7229C23.165 42.5429 23.273 42.3299 23.345 42.0839C23.423 41.8379 23.462 41.5619 23.462 41.2559C23.462 40.9499 23.423 40.6739 23.345 40.4279C23.273 40.1759 23.165 39.9629 23.021 39.7889C22.883 39.6089 22.709 39.4709 22.499 39.3749C22.295 39.2789 22.064 39.2309 21.806 39.2309C21.542 39.2309 21.308 39.2819 21.104 39.3839C20.9 39.4799 20.726 39.6179 20.582 39.7979C20.444 39.9719 20.336 40.1849 20.258 40.4369C20.186 40.6829 20.15 40.9559 20.15 41.2559ZM24.911 41.2559C24.911 41.7899 24.83 42.2609 24.668 42.6689C24.512 43.0709 24.296 43.4099 24.02 43.6859C23.744 43.9559 23.414 44.1599 23.03 44.2979C22.652 44.4359 22.244 44.5049 21.806 44.5049C21.38 44.5049 20.978 44.4359 20.6 44.2979C20.222 44.1599 19.892 43.9559 19.61 43.6859C19.328 43.4099 19.106 43.0709 18.944 42.6689C18.782 42.2609 18.701 41.7899 18.701 41.2559C18.701 40.7219 18.785 40.2539 18.953 39.8519C19.121 39.4439 19.346 39.1019 19.628 38.8259C19.916 38.5499 20.246 38.3429 20.618 38.2049C20.996 38.0669 21.392 37.9979 21.806 37.9979C22.232 37.9979 22.634 38.0669 23.012 38.2049C23.39 38.3429 23.72 38.5499 24.002 38.8259C24.284 39.1019 24.506 39.4439 24.668 39.8519C24.83 40.2539 24.911 40.7219 24.911 41.2559Z" fill="white"/>
<path d="M30.2483 43.1729V44.3789H26.0813V38.1419H27.4853V43.1729H30.2483Z" fill="white"/>
<path d="M32.5566 43.2359C32.6226 43.2419 32.6976 43.2479 32.7816 43.2539C32.8716 43.2539 32.9766 43.2539 33.0966 43.2539C33.7986 43.2539 34.3176 43.0769 34.6536 42.7229C34.9956 42.3689 35.1666 41.8799 35.1666 41.2559C35.1666 40.6019 35.0046 40.1069 34.6806 39.7709C34.3566 39.4349 33.8436 39.2669 33.1416 39.2669C33.0456 39.2669 32.9466 39.2699 32.8446 39.2759C32.7426 39.2759 32.6466 39.2819 32.5566 39.2939V43.2359ZM36.6156 41.2559C36.6156 41.7959 36.5316 42.2669 36.3636 42.6689C36.1956 43.0709 35.9556 43.4039 35.6436 43.6679C35.3376 43.9319 34.9626 44.1299 34.5186 44.2619C34.0746 44.3939 33.5766 44.4599 33.0246 44.4599C32.7726 44.4599 32.4786 44.4479 32.1426 44.4239C31.8066 44.4059 31.4766 44.3639 31.1526 44.2979V38.2229C31.4766 38.1629 31.8126 38.1239 32.1606 38.1059C32.5146 38.0819 32.8176 38.0699 33.0696 38.0699C33.6036 38.0699 34.0866 38.1299 34.5186 38.2499C34.9566 38.3699 35.3316 38.5589 35.6436 38.8169C35.9556 39.0749 36.1956 39.4049 36.3636 39.8069C36.5316 40.2089 36.6156 40.6919 36.6156 41.2559Z" fill="white"/>
</svg>

<svg viewBox="0 0 49 48" fill="none" xmlns="http://www.w3.org/2000/svg"><path d="M39.5 0h-30a9 9 0 0 0-9 9v26.25h48V9a9 9 0 0 0-9-9Z" fill="#0364B9"/><path d="M9.5 0a9 9 0 0 0-9 9v.261L45.372 2.18A8.965 8.965 0 0 0 39.5 0h-30ZM48.5 9c0-2.256-.83-4.32-2.202-5.899L40.404 35.25l8.096.001V9Z" fill="#0A559E"/><path d="M.5 34.5h48V39a9 9 0 0 1-9 9h-30a9 9 0 0 1-9-9v-4.5Z" fill="#DAAF0A"/><path d="M11.513 14.526c.216.396.462.888.738 1.476.288.576.582 1.206.882 1.89.312.672.618 1.362.918 2.07l.846 1.998.846-1.998c.3-.708.6-1.398.9-2.07.312-.684.606-1.314.882-1.89.288-.588.54-1.08.756-1.476h2.556c.12.828.228 1.758.324 2.79.108 1.02.198 2.088.27 3.204.084 1.104.156 2.214.216 3.33.072 1.116.132 2.166.18 3.15h-2.736a323.856 323.856 0 0 0-.144-3.96 106.97 106.97 0 0 0-.27-4.32l-.72 1.674-.792 1.836c-.252.612-.498 1.2-.738 1.764-.24.552-.444 1.026-.612 1.422h-1.962c-.168-.396-.372-.87-.612-1.422-.24-.564-.492-1.152-.756-1.764-.252-.612-.51-1.224-.774-1.836l-.72-1.674a106.97 106.97 0 0 0-.27 4.32c-.06 1.428-.108 2.748-.144 3.96H7.841c.048-.984.102-2.034.162-3.15l.216-3.33c.084-1.116.174-2.184.27-3.204.108-1.032.222-1.962.342-2.79h2.682ZM32.532 14.526v2.394H28.77V27h-2.808V16.92H22.2v-2.394h10.332ZM38.477 23.328a1.77 1.77 0 0 0-.234-.918c-.157-.276-.427-.504-.81-.684-.385-.18-.9-.318-1.548-.414-.648-.096-1.465-.144-2.448-.144.132-1.116.24-2.25.324-3.402.083-1.152.15-2.232.197-3.24h6.75v2.25h-4.5c-.023.432-.053.852-.09 1.26a18.04 18.04 0 0 1-.09 1.044c1.753.12 3.043.534 3.87 1.242.84.696 1.26 1.668 1.26 2.916 0 .576-.102 1.11-.306 1.602-.203.492-.51.918-.917 1.278-.409.36-.925.642-1.549.846-.611.204-1.332.306-2.16.306-.323 0-.666-.024-1.026-.072a9.615 9.615 0 0 1-1.026-.162c-.324-.06-.617-.126-.882-.198a3.463 3.463 0 0 1-.611-.216l.486-2.214c.3.132.695.264 1.188.396.492.12 1.08.18 1.764.18.828 0 1.428-.162 1.8-.486.372-.336.558-.726.558-1.17ZM15.694 39.222c-.654 0-1.128.183-1.422.549-.288.36-.432.855-.432 1.485 0 .306.036.585.108.837.072.246.18.459.324.639.144.18.324.32.54.423.216.096.468.144.756.144.156 0 .288-.003.396-.01.114-.005.213-.017.297-.035v-2.17h1.404v3.088a5.055 5.055 0 0 1-.81.207 6.847 6.847 0 0 1-1.377.117c-.468 0-.894-.072-1.278-.216a2.67 2.67 0 0 1-.972-.63 2.863 2.863 0 0 1-.63-1.017 4.07 4.07 0 0 1-.216-1.377c0-.522.08-.984.243-1.386.162-.402.384-.741.666-1.017.282-.282.612-.495.99-.64a3.457 3.457 0 0 1 1.224-.215c.294 0 .558.02.792.063.24.036.444.08.612.135a2.654 2.654 0 0 1 .666.279L17.17 39.6a3.425 3.425 0 0 0-.666-.261 2.669 2.669 0 0 0-.81-.117ZM20.15 41.256c0 .306.036.582.108.828.078.246.186.459.324.639.144.174.318.309.522.405.204.096.438.144.702.144.258 0 .489-.048.693-.144.21-.096.384-.231.522-.405.144-.18.252-.393.324-.64.078-.245.117-.521.117-.827 0-.306-.039-.582-.117-.828a1.736 1.736 0 0 0-.324-.64 1.359 1.359 0 0 0-.522-.413 1.609 1.609 0 0 0-.693-.144 1.55 1.55 0 0 0-.702.153 1.454 1.454 0 0 0-.522.414 1.94 1.94 0 0 0-.324.639 2.91 2.91 0 0 0-.108.819Zm4.761 0c0 .534-.081 1.005-.243 1.413a2.9 2.9 0 0 1-.648 1.017c-.276.27-.606.474-.99.612a3.542 3.542 0 0 1-1.224.207 3.49 3.49 0 0 1-1.206-.207 2.805 2.805 0 0 1-.99-.612 2.938 2.938 0 0 1-.666-1.017c-.162-.408-.243-.88-.243-1.413 0-.534.084-1.002.252-1.404.168-.408.393-.75.675-1.026.288-.276.618-.483.99-.621a3.437 3.437 0 0 1 1.188-.207c.426 0 .828.069 1.206.207.378.138.708.345.99.62.282.277.504.619.666 1.027.162.402.243.87.243 1.404ZM30.248 43.173v1.206h-4.167v-6.237h1.404v5.03h2.763ZM32.557 43.236l.225.018h.315c.702 0 1.22-.177 1.557-.531.342-.354.513-.843.513-1.467 0-.654-.162-1.15-.486-1.485-.324-.336-.837-.504-1.54-.504a5.06 5.06 0 0 0-.296.009c-.102 0-.198.006-.288.018v3.942Zm4.059-1.98c0 .54-.084 1.01-.252 1.413a2.596 2.596 0 0 1-.72.999 3.008 3.008 0 0 1-1.125.594 5.237 5.237 0 0 1-1.494.198c-.252 0-.546-.012-.882-.036a6.766 6.766 0 0 1-.99-.126v-6.075c.324-.06.66-.1 1.008-.117.354-.024.657-.036.909-.036.534 0 1.017.06 1.449.18.438.12.813.309 1.125.567.312.258.552.588.72.99.168.402.252.885.252 1.449Z" fill="#fff"/></svg>
